polaris-icons/icons/new-icons/CirclePlusMajor.svg

<svg width="20" height="20" viewBox="0 0 20 20" fill="none" xmlns="http://www.w3.org/2000/svg">
<path d="M6.25 10C6.25 9.58579 6.58579 9.25 7 9.25H9.25V7C9.25 6.58579 9.58579 6.25 10 6.25C10.4142 6.25 10.75 6.58579 10.75 7V9.25H13C13.4142 9.25 13.75 9.58579 13.75 10C13.75 10.4142 13.4142 10.75 13 10.75H10.75V13C10.75 13.4142 10.4142 13.75 10 13.75C9.58579 13.75 9.25 13.4142 9.25 13V10.75H7C6.58579 10.75 6.25 10.4142 6.25 10Z" fill="#4A4A4A"/>
<path fill-rule="evenodd" clip-rule="evenodd" d="M10 17C13.866 17 17 13.866 17 10C17 6.13401 13.866 3 10 3C6.13401 3 3 6.13401 3 10C3 13.866 6.13401 17 10 17ZM10 15.5C13.0376 15.5 15.5 13.0376 15.5 10C15.5 6.96243 13.0376 4.5 10 4.5C6.96243 4.5 4.5 6.96243 4.5 10C4.5 13.0376 6.96243 15.5 10 15.5Z" fill="#4A4A4A"/>
</svg>

<svg viewBox="0 0 20 20" xmlns="http://www.w3.org/2000/svg"><path d="M6.25 10a.75.75 0 0 1 .75-.75h2.25v-2.25a.75.75 0 0 1 1.5 0v2.25h2.25a.75.75 0 0 1 0 1.5h-2.25v2.25a.75.75 0 0 1-1.5 0v-2.25h-2.25a.75.75 0 0 1-.75-.75Z" fill="#5C5F62"/><path fill-rule="evenodd" d="M10 17a7 7 0 1 0 0-14 7 7 0 0 0 0 14Zm0-1.5a5.5 5.5 0 1 0 0-11 5.5 5.5 0 0 0 0 11Z" fill="#5C5F62"/></svg>
